X:73
T:Maggie Brown's favourite
R:Jig
O:Ireland
M:6/8
K:G
g|\
dBG GAB|E2E E2c|AFD DEF|G2G G2g|\
dBG GAB|E2E E2c|AFD DEF|G3 G2::
g/a/|\
bgb afd|efg gfe|dBg dBG|AFD Dga|\
bgb afd|efg gfe|faf ge^c|d3 de=f|\
ece dBd|cac BgB|Ace dBG|FAF DEF|\
GAB EFG|ABc def|gdB cAF|G3 G2:|
